exported-svg/skip-back.svg

<svg height="24" viewBox="0 0 24 24" width="24" xmlns="http://www.w3.org/2000/svg"><path d="m20 19.5009387c0 .4192531-.4849659.6523397-.8123475.3904344l-10.00000002-8c-.25020331-.2001627-.25020331-.5807062 0-.7808689l10.00000002-7.99999995c.3273816-.26190534.8123475-.0288187.8123475.3904344zm-1-1.0403125v-13.91937513l-8.6996095 6.95968763zm-13 .0403125c0 .2761423-.22385763.5-.5.5s-.5-.2238577-.5-.5v-14.00000005c0-.27614237.22385763-.5.5-.5s.5.22385763.5.5z"/></svg>

<?xml version="1.0" encoding="UTF-8"?>
<svg width="24px" height="24px" viewBox="0 0 24 24" version="1.1" xmlns="http://www.w3.org/2000/svg" xmlns:xlink="http://www.w3.org/1999/xlink">
    <!-- Generator: Sketch 55.2 (78181) - https://sketchapp.com -->
    <title>skip-back</title>
    <desc>Created with Sketch.</desc>
    <g id="skip-back" stroke="none" stroke-width="1" fill="none" fill-rule="evenodd">
        <path d="M20,19.5009387 C20,19.9201918 19.5150341,20.1532784 19.1876525,19.8913731 L9.18765248,11.8913731 C8.93744917,11.6912104 8.93744917,11.3106669 9.18765248,11.1105042 L19.1876525,3.11050425 C19.5150341,2.84859891 20,3.08168555 20,3.50093865 L20,19.5009387 Z M19,18.4606262 L19,4.54125107 L10.3003905,11.5009387 L19,18.4606262 Z" id="Shape" fill="#000000" fill-rule="nonzero"></path>
        <path d="M6,18.5009387 L6,4.50093865 C6,4.22479628 5.77614237,4.00093865 5.5,4.00093865 C5.22385763,4.00093865 5,4.22479628 5,4.50093865 L5,18.5009387 C5,18.777081 5.22385763,19.0009387 5.5,19.0009387 C5.77614237,19.0009387 6,18.777081 6,18.5009387 Z" id="Shape" fill="#000000" fill-rule="nonzero"></path>
    </g>
</svg>
